packages/blockchain-info-components/src/Images/img/checkmark-green.svg

<svg fill="none" height="48" viewBox="0 0 48 48" width="48" xmlns="http://www.w3.org/2000/svg"><ellipse cx="25" cy="23.5" fill="#fff" rx="18" ry="22.5"/><path d="m24 0c-13.248 0-24 10.752-24 24s10.752 24 24 24 24-10.752 24-24-10.752-24-24-24zm-4.8 36-12-12 3.384-3.384 8.616 8.592 18.216-18.216 3.384 3.408z" fill="#59cd93"/></svg>

<svg width="48" height="48" viewBox="0 0 48 48" fill="none" xmlns="http://www.w3.org/2000/svg">
<ellipse cx="25" cy="23.5" rx="18" ry="22.5" fill="white"/>
<path d="M24 0C10.752 0 0 10.752 0 24C0 37.248 10.752 48 24 48C37.248 48 48 37.248 48 24C48 10.752 37.248 0 24 0ZM19.2 36L7.2 24L10.584 20.616L19.2 29.208L37.416 10.992L40.8 14.4L19.2 36Z" fill="#59CD93"/>
</svg>
